!!!!SEGMENT: pl-kk--kk-i-6--039-002_anonim--missa-de-nativitate-et-in-terra.krn
!!!cenid: 16xx:1027
!!!COM: Anonim
!!!COM-rismid: pe30004985
!!!CDT:
!!!CNT:
!!!OPR: Missa de Nativitate
!!!OTL: Et in terra
!!!OMV: 002
!!!PDT:
!!!AGN: Sacred; Mass
!!!SMS-siglum: PL-Kk
!!!SMS-shelfmark: Kk.I.6
!!!SMS-shelfwork: 039-002 M
!!!SMS-variant:
!!!SMS-altvar:
!!!NIFC-rismid: 1001136501
!!!URL-scan: http://repozytorium.nifc.pl/skany/pl-kk-nut--i-6
!!!ONB-nifc: UWAGA: C (skan 0060-0061, s. 117-118), T (skan 0139-0140, s. 149-151), B (skan 0281-0282, s. 145-146) Części Mszy: 1. Kyrie, 2. Et in terra, 3. Sanctus, 4. Agnus Dei
!!!key:
**kern	**text	**kern	**text	**kern	**text
*part3	*part3	*part2	*part2	*part1	*part1
*staff3	*staff3	*staff2	*staff2	*staff1	*staff1
*Iempty	*	*Itenor	*	*Ivox	*
*I"Baſso.	*	*I"Tenore	*	*I"Canto.	*
*I'B	*	*I'T	*	*I'S	*
*clefF4	*	*clefC4	*	*clefC1	*
*k[b-]	*	*k[b-]	*	*k[b-]	*
*g:	*	*g:	*	*g:	*
*M2/1	*	*M2/1	*	*M2/1	*
*met(C|)	*	*met(C|)	*	*met(C|)	*
=1-	=1-	=1-	=1-	=1-	=1-
4G\	ET	4B-\	ET	4.b-\	ET
4B-\	in	4d\	in	.	.
.	.	.	.	8b-\	in
4F\	ter-	4c\	ter-	4a\	ter-
!	!	!	!	!LO:TX:t=P:problem=kreska pseudotaktowa	!
4G\	-ra	4B-\	-ra	4g/	-ra
!	!	!	!	!LO:TX:b:t=P:problem=♯ below	!
8D/	pax	8.A/	pax	8f#X/	pax
8D/	ho-	.	.	8f#/	h(o-
.	.	16A/	ho-	.	.
8.G\	-mi-	8B-\	-mi-	8.g/	-mi)-
.	.	8B-\	-ni-	.	.
16G\	-ni-	.	.	16g/	-ni-
!	!	!	!	!LO:TX:t=P:problem=kreska pseudotaktowa	!
!	!	!LO:TX:t=P:global:problem=oddech/cezura na różnych wysokościach	!	!LO:TX:t=P:global:problem=oddech/cezura na różnych wysokościach	!
2F\	-bus	2c,\	-bus	2a,\	-bus
=2-	=2-	=2-	=2-	=2-	=2-
4G\	bo-	4B-\	bo-	4.b-\	bo-
4B-\	-nae	4d\	-nae	.	.
.	.	.	.	8b-\	-nae
4F\	Vo-	4c\	Vo-	4a\	Vo-
!	!	!	!	!LO:TX:t=P:problem=kreska pseudotaktowa	!
4G\	-lun-	4B-\	-lun-	4g/	-lun-
(<4D/	-ta-	8A\L	-ta-	8fny/L	-ta-
.	.	16B-\L	.	16g/L	.
.	.	16c\JJ	.	16a/JJ	.
4G\)	.	4B-\	.	4g/	.
!LO:TX:t=P:global:problem=oddech/cezura na różnych wysokościach	!	!	!	!LO:TX:t=P:problem=kreska pseudotaktowa	!
2F,\	-tis	2c,\	-tis	2a,\	-tis
=3-	=3-	=3-	=3-	=3-	=3-
(8G\L	Lau-	2B-\	lau-	2g/	lau-
8F\J)	.	.	.	.	.
(8E-X\L	-da-	.	.	.	.
!LO:SIC:v:t=custos C	!	!	!	!	!
8D\J)	.	.	.	.	.
!LO:LB:g=original	!	!	!	!	!
4C/	-mus	4c\	-da-	4g/	-da-
!	!	!	!	!LO:TX:t=P:problem=kreska pseudotaktowa	!
!	!	!	!	!LO:TX:b:t=P:problem=♯ below	!
4D/	.	4A/	-mus	4f#X/	-m(us)
!	!	!LO:SIC:v:t=custos G	!	!	!
1GG	te	1G	te	1g,	te
!	!	!LO:LB:g=original	!	!	!
=4-	=4-	=4-	=4-	=4-	=4-
1rD	.	8G/	be-	8b-\	be-
.	.	8F/	-ne-	8a\	-ne-
.	.	8G/	-di-	8b-\	-di-
!	!	!	!	!LO:SIC:v:t=custos b-	!
.	.	8A/	-ci-	8cc\	-ci-
!	!	!	!	!LO:LB:g=original	!
.	.	4G/	-mus	4b-\	-mus
.	.	4F/	te	4a\	te
(8G\L	A-	1rA	.	1r	.
!LO:TX:t=P:problem=♯ above	!	!	!	!	!
8F#X\J)	.	.	.	.	.
8G\	-do-	.	.	.	.
8A\	-ra-	.	.	.	.
4G\	-mus	.	.	.	.
4D,/	te	.	.	.	.
=5-	=5-	=5-	=5-	=5-	=5-
*M3/1	*	*M3/1	*	*M3/1	*
1BB-	Glo-	1d	Glo-	1b-	Glo-
2C/	-ri-	2c\	-ri-	2a\	-ri-
2C/	-fi-	2B-\	-fi-	2g/	-fi-
2.D/	-ca-	2.A/	-ca-	2.fny/	-ca-
!	!	!	!	!LO:TX:t=P:problem=kreska pseudotaktowa	!
!	!	!	!	!LO:TX:b:t=P:problem=♯ below	!
4D/	-mus	4A/	-mus	4f#X/	-mus
=6-	=6-	=6-	=6-	=6-	=6-
0.GG	te	0.G	te.	0.g	te
=7-	=7-	=7-	=7-	=7-	=7-
1.G	Gra-	1.B-	Gra-	1.g	Gra-
2G\	-ti-	2B-\	-ti-	2g/	-ti-
!	!	!	!	!LO:TX:t=P:problem=kreska pseudotaktowa	!
1G	-as	1B-	-as	1g	-as
=8-	=8-	=8-	=8-	=8-	=8-
1.G	a-	1.B-	a-	1.g	a-
2G\	-gi-	2B-\	-gi-	2g/	-gi-
!LO:SIC:v:t=custos F	!	!	!	!LO:TX:t=P:problem=kreska pseudotaktowa	!
1G	-m(us)	1B-	-mus	1g	-mus
!LO:LB:g=original	!	!	!	!	!
=9-	=9-	=9-	=9-	=9-	=9-
0Fny	ti-	0c	ti-	0a	ti-
!	!	!LO:SIC:v:t=custos d	!	!	!
1F,	-bi	1c	-bi	1a	-bi
!	!	!LO:LB:g=original	!	!	!
=10-	=10-	=10-	=10-	=10-	=10-
1B-	pro-	1d	pro-	1b-	pro-
1F	-pter	1c	-pter	1a	-pter
1G	ma-	1B-	ma-	1g	ma-
=11-	=11-	=11-	=11-	=11-	=11-
*	*	*	*	*col	*
0D	-gnam	0A	-gnam	0fny	-gnam
!	!	!	!	!LO:SIC:v:t=custos b-	!
1BB-	glo-	1d	glo-	0b-	glo-
*	*	*	*	*Xcol	*
=12-	=12-	=12-	=12-	=12-	=12-
1E-X	-ri-	1e-X	-ri-	.	.
!	!	!	!	!LO:LB:g=original	!
1BB-	-am	1d	-am	2b-\	-ri-
.	.	.	.	2b-\	-am
!	!	!	!	!LO:TX:t=P:problem=kreska pseudotaktowa	!
1F	tu-	1c	tu-	1a	tu-
=13-	=13-	=13-	=13-	=13-	=13-
0.BB-	-am	0.d	-am	0.b-	-am
=14-	=14-	=14-	=14-	=14-	=14-
1B-	D(o-	1d	D(o-	1b-	D(o-
2B-\	-mi)-	2d\	-mi)-	2b-\	-mi)-
2B-\	-ne	2d\	-ne	2b-\	-ne
2F\	De-	2c\	De-	2a\	De-
!	!	!	!	!LO:TX:t=P:problem=kreska pseudotaktowa	!
2F\	-us	2c\	-(us)	2a\	-us
=15-	=15-	=15-	=15-	=15-	=15-
1G	Rex	1B-	Rex	1.g	Rex
1C	cae-	1c	cae-	.	.
.	.	.	.	2g/	cae-
!	!	!	!	!LO:TX:t=P:problem=kreska pseudotaktowa	!
!	!	!	!	!LO:TX:t=P:problem=♯ above	!
1D	-le-	1A	-le-	1f#X	-le-
=16-	=16-	=16-	=16-	=16-	=16-
!LO:SIC:v:t=custos G	!	!	!	!	!
0GG,	-ſtis	0B-,	-ſtis	0g,	-ſtis
!LO:PB:g=original	!	!	!	!	!
1G	De-	1B-	De-	1g	De-
=17-	=17-	=17-	=17-	=17-	=17-
0D	-us	0A	-us	0fny	-us
!	!	!LO:SIC:v:t=custos c	!	!	!
1G	Pa-	1B-	Pa-	1g	Pa-
!	!	!LO:LB:g=original	!	!	!
=18-	=18-	=18-	=18-	=18-	=18-
0F	-ter	0c	-ter	0a	-ter
!	!	!	!	!LO:TX:t=P:problem=kreska pseudotaktowa	!
1BB-	O-	1d	o-	1b-	o-
=19-	=19-	=19-	=19-	=19-	=19-
!	!	!	!	!LO:TX:t=P:problem=♯ above	!
1.D	-mni-	1.A	-mni-	1.f#X	-mni-
2D/	-po-	2A/	-po-	2f#/	-po-
!	!	!	!	!LO:SIC:v:t=custos b	!
1GG	-tens	1B-,	-tens	1g	-tens
!	!	!	!	!LO:LB:g=original	!
=20-	=20-	=20-	=20-	=20-	=20-
!LO:N:vis=00	!	!	!	!	!
00.r	.	1G	D(o-	1b-	D(o-
.	.	2G/	-mi)-	2b-\	-mi)-
.	.	2G/	-ne	2b-\	-ne
.	.	2F/	Fi-	2cc\	Fi-
!	!	!	!	!LO:TX:t=P:problem=kreska pseudotaktowa	!
.	.	2F/	-li	2cc\	-li
=21-	=21-	=21-	=21-	=21-	=21-
.	.	2B-\	V-	2dd\	V-
.	.	2B-\	-ni-	2dd\	-ni-
.	.	1F	-ge-	1cc	-ge-
.	.	1G	-ni-	1b-	-ni-
=22-	=22-	=22-	=22-	=22-	=22-
!LO:N:vis=00	!	!	!	!LO:TX:t=P:problem=kreska pseudotaktowa	!
00.r	.	0.D	-te	0.a	-te
=23-	=23-	=23-	=23-	=23-	=23-
.	.	1D	Je-	1.b-	Je-
.	.	1E-X	-su	.	.
.	.	.	.	2b-\	-ſu
.	.	1F	Chri-	1a	chri-
=24-	=24-	=24-	=24-	=24-	=24-
!LO:N:vis=00	!	!LO:TX:t=P:problem=kreska pseudotaktowa	!	!	!
!	!	!LO:SIC:v:t=custos B-	!	!LO:TX:t=P:problem=kreska pseudotaktowa	!
00.r	.	0.B-	-ſte	0.b-	-ſte
!	!	!LO:PB:g=original	!	!	!
=25-	=25-	=25-	=25-	=25-	=25-
.	.	1B-	D(o-	1dd	D(o-
.	.	2B-\	-mi)-	2dd\	-mi)-
.	.	2B-\	-ne	2dd\	-ne
.	.	2F/	De-	2cc\	De-
!	!	!	!	!LO:TX:t=P:problem=kreska pseudotaktowa	!
.	.	2F/	-us	2cc\	-us
=26-	=26-	=26-	=26-	=26-	=26-
!LO:N:vis=00	!	!	!	!	!
00.r	.	1G	A-	1b-	A-
.	.	1C	-gnus	1cc	-gn(us)
!	!	!	!	!LO:SIC:v:t=custos b-	!
.	.	1D	De-	1a	De-
!	!	!	!	!LO:LB:g=original	!
=27-	=27-	=27-	=27-	=27-	=27-
.	.	1.G	-i	1.b-	-i
.	.	2G/	Fi-	2dd\	Fi-
.	.	1A	-li-	1cc	-li-
=28-	=28-	=28-	=28-	=28-	=28-
*	*	*	*	*col	*
!LO:N:vis=0	!	!	!	!	!
0.r	.	1B-	-us	1b-	-us
*	*	*lig	*	*	*
!	!	!	!	!LO:TX:t=P:problem=kreska pseudotaktowa	!
.	.	(1c	Pa-	0a	Pa-
.	.	1d)	.	.	.
*	*	*Xlig	*	*Xcol	*
=29-	=29-	=29-	=29-	=29-	=29-
1r	.	0G,	-tris	0g,	-tris
1r	.	.	.	.	.
1G	Qui	1B-	Qui	1dd	Qui
=30-	=30-	=30-	=30-	=30-	=30-
0G	tol-	0B-	tol-	0dd	tol-
1D	-lis	1A	-lis	1dd	-lis
=31-	=31-	=31-	=31-	=31-	=31-
(1.G	pec-	1.B-	pec-	1.dd	pec-
2A\)	.	2c\	-ca-	2cc\	-ca-
1B-	-ca-	1d	-ta	1b-	-ta
=32-	=32-	=32-	=32-	=32-	=32-
0F	-ta	0c	mun-	0a	mun-
1G	mun-	1B-	.	1b-	.
!	!	!LO:LB:g=original	!	!	!
=33-	=33-	=33-	=33-	=33-	=33-
!LO:SIC:v:t=custos BB-	!	!LO:TX:t=P:problem=defekt źródła [nuta nieczytelna]	!	!LO:TX:t=P:problem=kreska pseudotaktowa	!
0.F	-di	0.c	-di	0.a	-di
!LO:LB:g=original	!	!LO:LB:g=original	!	!	!
=34-	=34-	=34-	=34-	=34-	=34-
0BB-	Mi-	0d	Mi-	0b-	Mi-
1BB-	-ſe-	1d	-ſe-	1fny	-ſe-
=35-	=35-	=35-	=35-	=35-	=35-
0F	-re-	0c	-re-	1.a	-re-
.	.	.	.	2g/	.
1B-	-re	1d	-re	2f/	.
!	!	!	!	!LO:SIC:v:t=custos d	!
.	.	.	.	2e/	.
!	!	!	!	!LO:PB:g=original	!
=36-	=36-	=36-	=36-	=36-	=36-
*	*	*col	*	*	*
(1G	no-	1B-	no-	2d/	.
.	.	.	.	2g/	-re
0D)	.	0A	.	1g	no-
!	!	!	!	!LO:TX:t=P:problem=♯ above	!
.	.	.	.	1f#X	.
*	*	*Xcol	*	*	*
=37-	=37-	=37-	=37-	=37-	=37-
0.GG	-bis	0.G	-bis	0.g	-bis
=38-	=38-	=38-	=38-	=38-	=38-
0D	qui	0d	Qui	0a	Qui
1G	tol-	1B-	tol-	1b-	tol-
=39-	=39-	=39-	=39-	=39-	=39-
0F	-lis	0A	-lis	0cc	-lis
!	!	!	!	!LO:TX:t=P:problem=kreska pseudotaktowa	!
1D	pec-	1A	pec-	1fny	pec-
=40-	=40-	=40-	=40-	=40-	=40-
1.BB-	-ca-	1.G	-ca-	1.f	-ca-
2BB-/	-ta	2G/	-ta	2f/	-ta
1C	mun-	1G	mun-	1e	mun-
=41-	=41-	=41-	=41-	=41-	=41-
0.F	-di	1A,	-di	1f,	-di
.	.	2F/	Su-	2a\	Su-
.	.	2F/	-ſci-	2a\	-ſci-
!	!	!	!	!LO:TX:t=P:problem=kreska pseudotaktowa	!
.	.	1F	-pe	1a,	-pe
=42-	=42-	=42-	=42-	=42-	=42-
!LO:N:vis=00	!	!	!	!	!
00.r	.	2B-\	de-	2dd\	de-
!	!	!LO:SIC:v:t=custos A	!	!	!
.	.	2B-\	-pre-	2dd\	-pre-
!	!	!LO:LB:g=original	!	!	!
.	.	2A/	-ca-	2cc\	-ca-
.	.	2A/	-ti-	2cc\	-ti-
!	!	!	!	!LO:TX:t=P:problem=kreska pseudotaktowa	!
!	!	!	!	!LO:SIC:v:t=custos cc	!
.	.	1B-	-o-	1dd	-o-
!	!	!	!	!LO:LB:g=original	!
=43-	=43-	=43-	=43-	=43-	=43-
*	*	*col	*	*	*
.	.	1c	-nem	1cc	-nem
.	.	0G	no-	1cc	no-
!	!	!	!	!LO:TX:t=P:problem=kreska pseudotaktowa	!
!	!	!	!	!LO:N:acc=#	!
.	.	.	.	1bn	.
*	*	*Xcol	*	*	*
=44-	=44-	=44-	=44-	=44-	=44-
1r	.	0c,	-ſtram	0cc,	-ſtram
1r	.	.	.	.	.
!	!	!	!	!LO:TX:t=P:problem=kreska pseudotaktowa	!
1G	qui	1B-	qui	1g	qui
=45-	=45-	=45-	=45-	=45-	=45-
1G	ſe-	1B-	ſe-	1dd	ſe-
1G	-des	1B-	-des	1dd	-des
!LO:SIC:v:t=custos F	!	!	!	!LO:TX:t=P:problem=kreska pseudotaktowa	!
1B-	ad	1d	ad	1b-y	ad
!LO:LB:g=original	!	!	!	!	!
=46-	=46-	=46-	=46-	=46-	=46-
1F	dex-	1c	dex-	1a	dex-
2G\	-te-	2B-\	-te-	2g/	-te-
2G\	-ram	2B-\	-ram	2g/	-ram
!	!	!	!	!LO:TX:t=P:problem=kreska pseudotaktowa	!
!	!	!	!	!LO:TX:t=P:problem=♯ above	!
1D	Pa-	1A	Pa-	1f#X	Pa-
=47-	=47-	=47-	=47-	=47-	=47-
0.GG	-tris	0.B-	-tris	0.g	-tris
=48-	=48-	=48-	=48-	=48-	=48-
0D	Mi-	0A	Mi-	0fny	Mi-
!	!	!	!	!LO:TX:t=P:problem=kreska pseudotaktowa	!
1G	-ſe-	1B-	-ſe-	1g	-ſe-
=49-	=49-	=49-	=49-	=49-	=49-
*	*	*col	*	*	*
1.F	-re-	0c	-re-	0a	-re-
2Eny\	.	.	.	.	.
!	!	!	!	!LO:TX:t=P:problem=kreska pseudotaktowa	!
2D/	.	0d	-re	1a	-re
2C/	.	.	.	.	.
=50-	=50-	=50-	=50-	=50-	=50-
1BB-	-re	.	.	2b-\	no-
.	.	.	.	2a\	.
!	!	!LO:SIC:v:t=custos c	!	!	!
0C	no-	0c	no-	2g/	.
!	!	!	!	!LO:SIC:v:t=custos g	!
.	.	.	.	2f/	.
!	!	!	!	!LO:LB:g=original	!
.	.	.	.	1g	.
*	*	*Xcol	*	*	*
!	!	!LO:LB:g=original	!	!	!
=51-	=51-	=51-	=51-	=51-	=51-
!	!	!	!	!LO:TX:t=P:problem=kreska pseudotaktowa	!
0.F	-bis	0.c	-bis	0.f	-bis
=52-	=52-	=52-	=52-	=52-	=52-
!	!	!LO:N:vis=00	!	!	!
0B-	Mi-	00.r	.	0dd	Mi-
1B-	-ſe-	.	.	1dd	-ſe-
=53-	=53-	=53-	=53-	=53-	=53-
0A	-re-	.	.	0cc	-re-
!LO:SIC:v:t=custos G	!	!	!	!LO:TX:t=P:problem=kreska pseudotaktowa	!
1B-	-re	.	.	1dd	-re
!LO:LB:g=original	!	!	!	!	!
=54-	=54-	=54-	=54-	=54-	=54-
!	!	!LO:N:vis=0	!	!	!
1G	no-	0.r	.	(1b-	no-
!	!	!	!	!LO:TX:t=P:problem=kreska pseudotaktowa	!
(0D	-bis	.	.	0a)	.
=55-	=55-	=55-	=55-	=55-	=55-
0.GG)	.	0d	Quo-	1g,	-bis
.	.	.	.	1b-	Quo-
.	.	1d	-ni-	1b-	-ni-
=56-	=56-	=56-	=56-	=56-	=56-
0G	Quo-	0.d	-am	0.b-	-am
1G	-ni-	.	.	.	.
=57-	=57-	=57-	=57-	=57-	=57-
0.G	-am	1d	tu	1b-	tu
.	.	1d	ſo-	1b-	ſo-
!	!	!	!	!LO:TX:t=P:problem=kreska pseudotaktowa	!
!	!	!	!	!LO:TX:t=P:problem=♯ above	!
.	.	1A	-lus	1f#X	-lus
=58-	=58-	=58-	=58-	=58-	=58-
1G	tu	0B-	San-	0g	ſan-
1G	ſo-	.	.	.	.
!	!	!LO:TX:t=P:problem=♯ above	!	!	!
1F#X	-lus	1F#X,	-ctus	1a,	-ctus
=59-	=59-	=59-	=59-	=59-	=59-
0G	ſan-	1d	tu	1b-	tu
.	.	1d	ſo-	1b-	ſo-
!	!	!	!	!LO:TX:t=P:problem=♯ above	!
1D,	-ctus	1A	-lus	1f#X	-lus
=60-	=60-	=60-	=60-	=60-	=60-
1G	tu	1.B-	D(o-	1.g	Do-
1G	ſo-	.	.	.	.
!	!	!	!	!LO:SIC:v:t=custos a	!
.	.	2B-\	-mi)-	2g/	-mi-
!LO:TX:b:t=P:problem=♯ below	!	!LO:TX:t=P:problem=♯ above	!	!LO:TX:t=P:problem=kreska pseudotaktowa	!
1F#X	-lus	1F#X,	-nus	1a,	-nus
=61-	=61-	=61-	=61-	=61-	=61-
1.G	Do-	1d	tu	1b-	tu
.	.	1d	ſo-	1b-	ſo-
2G\	-mi-	.	.	.	.
!LO:SIC:v:t=custos G	!	!	!	!LO:TX:t=P:problem=♯ above	!
1D,	-nus	2A/	-lus	2f#X/	-lus
!	!	!LO:SIC:v:t=custos B-	!	!LO:TX:t=P:problem=kreska pseudotaktowa	!
.	.	2A/	al-	2f#/	al-
!LO:LB:g=original	!	!LO:LB:g=original	!	!	!
=62-	=62-	=62-	=62-	=62-	=62-
1G	tu	1.B-	-tiſ-	1.g	-tiſ-
1G	ſo-	.	.	.	.
.	.	2B-\	-ſi-	2g/	-ſi-
!	!	!LO:TX:t=P:problem=♯ above	!	!	!
2F#X\	-lus	1F#X	-mus	1a	-mus
2F#\	al-	.	.	.	.
=63-	=63-	=63-	=63-	=63-	=63-
1.G	-tiſ-	0.rA	.	0.rg	.
2G\	-ſi-	.	.	.	.
1D,	-mus	.	.	.	.
=64-	=64-	=64-	=64-	=64-	=64-
1G	Je-	1.d	Je-	1.b-	Je-
1E-X	-su	.	.	.	.
.	.	2e-X\	-su	2b-\	-su
!	!	!	!	!LO:TX:t=P:problem=kreska pseudotaktowa	!
1Fny	Chri-	1c	Chri-	1a	Chri-
=65-	=65-	=65-	=65-	=65-	=65-
0BB-,	-ſte	0d,	-ſte	0b-,	-ſte
1B-	Cum	1d	Cum	1b-	Cum
=66-	=66-	=66-	=66-	=66-	=66-
0B-	ſan-	0d	ſan-	0b-	ſan-
!	!	!LO:TX:b:t=P:problem=♯ below	!	!	!
!	!	!LO:N:acc=#	!	!LO:TX:t=P:problem=kreska pseudotaktowa	!
1G	-cto	1en	-cto	1b-	-cto
=67-	=67-	=67-	=67-	=67-	=67-
!	!	!LO:TX:b:t=P:problem=♯ below	!	!	!
1.A	Spi-	1.c#X	Spi-	1.a	ſpi-
2A\	-ri-	2c#\	-ri-	2a\	-ri-
2F#X\	-tu	2d\	-tu	2a\	-tu
!	!	!	!	!LO:TX:t=P:problem=kreska pseudotaktowa	!
2F#\	in	2d\	in	2a\	in
=68-	=68-	=68-	=68-	=68-	=68-
!	!	!LO:TX:b:t=P:problem=♯ below	!	!	!
!LO:SIC:v:t=custos E	!	!LO:N:acc=#	!	!LO:SIC:v:t=custos g	!
1G	glo-	1Bn	glo-	1g	glo-
!LO:LB:g=original	!	!LO:TX:t=P:problem=♯ above	!	!LO:LB:g=original	!
2Eny\	-ri-	2c#X\	-ri-	2g/	-ri-
2E\	-a	2c#\	-a	2g/	-a
2Fny\	De-	2d\	De-	2a\	De-
!	!	!LO:SIC:v:t=custos d	!	!LO:TX:t=P:problem=kreska pseudotaktowa	!
2F\	-i	2d\	-i	2a\	-i
!	!	!LO:LB:g=original	!	!	!
=69-	=69-	=69-	=69-	=69-	=69-
1.G	Pa-	1.d	Pa-	1.b-	Pa-
2G\	-tris	2d\	-tris	2b-\	-tris
1A	A-	1cny	A-	1a	A-
=70-	=70-	=70-	=70-	=70-	=70-
!	!	!	!	!LO:TX:b:t=a	!
0.D	-men.	0.d,	-men	0.a	-men
=71-	=71-	=71-	=71-	=71-	=71-
1.BB-	A-	0d	A-	1.b-	A-
2C/	.	.	.	4a\	.
.	.	.	.	4g\	.
2D/	.	1B-y,	-men	2fny/	.
!	!	!	!	!LO:TX:t=P:problem=kreska pseudotaktowa	!
2E\	.	.	.	2g/	.
=72-	=72-	=72-	=72-	=72-	=72-
0F	.	1.Fny	A-	0a	.
.	.	2G/	.	.	.
1D,	-men	2A/	.	1f	.
.	.	2B-\	.	.	.
=73-	=73-	=73-	=73-	=73-	=73-
1.C	A-	0c	.	1g,	-men
.	.	.	.	1.g	A-
2D/	.	.	.	.	.
2E-X\	.	(1G	-men	.	.
!	!	!	!	!LO:TX:t=P:problem=kreska pseudotaktowa	!
2F\	.	.	.	2a\	.
=74-	=74-	=74-	=74-	=74-	=74-
1.G	.	1B-,)	.	1.b-	.
.	.	1.B-	A-	.	.
!	!	!	!	!LO:SIC:v:t=custos g	!
2F\	.	.	.	2a\	.
!	!	!	!	!LO:LB:g=original	!
2E-X\	.	.	.	2g/	.
!LO:SIC:v:t=custos C	!	!	!	!LO:TX:t=P:problem=kreska pseudotaktowa	!
2D/	.	4c\	.	2f/	.
.	.	4d\	.	.	.
!LO:LB:g=original	!	!	!	!	!
=75-	=75-	=75-	=75-	=75-	=75-
0.C	.	1.e-X	.	1.cc	.
.	.	2d\	.	2b-\	.
.	.	2c\	.	2a\	.
!	!	!	!	!LO:TX:t=P:problem=kreska pseudotaktowa	!
.	.	2B-\	.	2g/	.
=76-	=76-	=76-	=76-	=76-	=76-
*	*	*	*	*col	*
!	!	!	!	!LO:TX:t=P:problem=♯ above	!
0.D	.	0A	.	0f#X	.
!	!	!LO:SIC:v:t=custos A	!	!	!
.	.	1B-	.	0g	.
!	!	!LO:LB:g=original	!	!	!
=77-	=77-	=77-	=77-	=77-	=77-
0.D	.	0.A	.	.	.
!	!	!	!	!LO:TX:t=P:problem=♯ above	!
.	.	.	.	0f#X	.
*	*	*	*	*Xcol	*
=78-	=78-	=78-	=78-	=78-	=78-
0.GGl	-men.	0.Gl	-men.	0.gl	-men.
==	==	==	==	==	==
*-	*-	*-	*-	*-	*-
!!!system-decoration: [s1,s2,s3]
!!!RDF**kern: < = below
!!!RDF**kern: l = terminal long
!!!AIN: 1 empty 1 tenor 1 vox
!!!ENC: Marta Lawrence
!!!END: 2021-03-22
!!!ENC: Andrzej Kubiczek
!!!END: 2021-03-09
